src/svg/Next_20.svg

<?xml version="1.0" encoding="UTF-8"?>
<svg width="20px" height="20px" viewBox="0 0 20 20" version="1.1" xmlns="http://www.w3.org/2000/svg" xmlns:xlink="http://www.w3.org/1999/xlink">
    <!-- Generator: Sketch 56.3 (81716) - https://sketch.com -->
    <title>Icons/Next/20</title>
    <desc>Created with Sketch.</desc>
    <g id="Icons/Next/20" stroke="none" stroke-width="1" fill="none" fill-rule="evenodd">
        <path d="M16.6483713,9.9796283 L10.6746043,4.8592566 L11.3253957,4.1 L18.7682954,10.4796283 L11.3253957,16.8592566 L10.6746043,16.1 L16.6483713,10.9796283 L1.5,10.9796283 L1.5,9.9796283 L16.6483713,9.9796283 Z" id="Combined-Shape" fill="#000000" fill-rule="nonzero"></path>
    </g>
</svg>

<svg viewBox="0 0 20 20"><path d="M16.648 9.98l-5.973-5.12.65-.76 7.443 6.38-7.443 6.38-.65-.76 5.973-5.12H1.5v-1h15.148z" fill-rule="nonzero"/></svg>
